Obsidian/status/22s/krudiotray-light-off22.svg

<svg height="22" width="22" xmlns="http://www.w3.org/2000/svg"><path d="m3.1426 4c-.6332 0-1.1426.5344-1.1426 1.1992v11.602c0 .665.5094 1.199 1.1426 1.199h15.714c.634 0 1.143-.534 1.143-1.199v-11.602c0-.6646-.509-1.199-1.143-1.199h-15.714zm4.8574 3c2.209 0 4 1.7909 4 4 0 2.209-1.791 4-4 4-2.2091 0-4-1.791-4-4 0-2.2091 1.7909-4 4-4zm5 0h5v1h-5zm-4.9004 1c-1.6569 0-3 1.3432-3 3 0 1.657 1.3431 3 3 3s3.0004-1.343 3.0004-3c0-1.6568-1.3435-3-3.0004-3zm4.9004 2h5v1h-5zm0 3h5v1h-5z" fill="#d3dae3"/></svg>

<svg xmlns="http://www.w3.org/2000/svg" width="22" height="22" version="1.1">
 <defs>
  <style id="current-color-scheme" type="text/css">
   .ColorScheme-Text { color:#d3dae3; } .ColorScheme-Highlight { color:#5294e2; }
  </style>
 </defs>
 <path style="fill:currentColor" class="ColorScheme-Text" d="M 3.1426,4 C 2.5094,4 2,4.5344 2,5.1992 l 0,11.602 c 0,0.665 0.5094,1.199 1.1426,1.199 l 15.714,0 c 0.634,0 1.143,-0.534 1.143,-1.199 l 0,-11.602 c 0,-0.6646 -0.509,-1.199 -1.143,-1.199 l -15.714,0 z M 8,7 c 2.209,0 4,1.7909 4,4 0,2.209 -1.791,4 -4,4 C 5.7909,15 4,13.209 4,11 4,8.7909 5.7909,7 8,7 Z m 5,0 5,0 0,1 -5,0 0,-1 z M 8.0996,8 c -1.6569,0 -3,1.3432 -3,3 0,1.657 1.3431,3 3,3 C 9.7565,14 11.1,12.657 11.1,11 11.1,9.3432 9.7565,8 8.0996,8 Z M 13,10 l 5,0 0,1 -5,0 0,-1 z m 0,3 5,0 0,1 -5,0 0,-1 z"/>
</svg>
